icons/Device/device-recover-line.svg

<svg viewBox="0 0 24 24" xmlns="http://www.w3.org/2000/svg"><path d="M19 2C19.5523 2 20 2.44772 20 3V21C20 21.5523 19.5523 22 19 22H5C4.44772 22 4 21.5523 4 21V3C4 2.44772 4.44772 2 5 2H19ZM18 4H6V20H18V4ZM12 7C14.7614 7 17 9.23858 17 12C17 13.7973 16.0517 15.3731 14.6282 16.2544L12.5 12H15C15 10.3431 13.6569 9 12 9C10.3431 9 9 10.3431 9 12C9 13.6569 10.3431 15 12 15L12.9552 16.9089C12.646 16.9687 12.3267 17 12 17C9.23858 17 7 14.7614 7 12C7 9.23858 9.23858 7 12 7Z"/></svg>

<svg xmlns="http://www.w3.org/2000/svg" viewBox="0 0 24 24">
    <g>
        <path fill="none" d="M0 0h24v24H0z"/>
        <path fill-rule="nonzero" d="M19 2a1 1 0 0 1 1 1v18a1 1 0 0 1-1 1H5a1 1 0 0 1-1-1V3a1 1 0 0 1 1-1h14zm-1 2H6v16h12V4zm-6 3a5 5 0 0 1 2.628 9.254L12.5 12H15a3 3 0 1 0-3 3l.955 1.909A5 5 0 1 1 12 7z"/>
    </g>
</svg>
